interact/assets/img/icon-cater.svg

<svg width="60" height="60" viewBox="0 0 60 60" fill="none" xmlns="http://www.w3.org/2000/svg">
<path d="M46.5273 59.9727H51.0545C53.3455 59.9727 55.2273 58.2273 55.5 55.9909L60 11.0455H46.3636V0H40.9909V11.0455H27.4364L28.2545 17.4273C32.9182 18.7091 37.2818 21.0273 39.9 23.5909C43.8273 27.4636 46.5273 31.4727 46.5273 38.0182V59.9727V59.9727ZM0 57.2455V54.5455H40.9909V57.2455C40.9909 58.7455 39.7636 59.9727 38.2364 59.9727H2.75455C1.22727 59.9727 0 58.7455 0 57.2455V57.2455ZM40.9909 38.1545C40.9909 16.3364 0 16.3364 0 38.1545H40.9909ZM0.0545454 43.6364H40.9636V49.0909H0.0545454V43.6364Z" fill="#C09186"/>
</svg>

<?xml version="1.0" encoding="utf-8"?>
<!-- Generator: Adobe Illustrator 16.0.0, SVG Export Plug-In . SVG Version: 6.00 Build 0)  -->
<!DOCTYPE svg PUBLIC "-//W3C//DTD SVG 1.1//EN" "http://www.w3.org/Graphics/SVG/1.1/DTD/svg11.dtd">
<svg version="1.1" id="Layer_1" xmlns="http://www.w3.org/2000/svg" xmlns:xlink="http://www.w3.org/1999/xlink" x="0px" y="0px"
	 width="60px" height="60px" viewBox="0 0 60 60" enable-background="new 0 0 60 60" xml:space="preserve">
<path d="M46.527,59.973h4.527c2.291,0,4.172-1.746,4.445-3.982L60,11.045H46.363V0H40.99v11.045H27.437l0.818,6.382
	c4.664,1.282,9.027,3.6,11.646,6.164c3.927,3.873,6.627,7.882,6.627,14.427V59.973L46.527,59.973z M0,57.246v-2.701h40.99v2.701
	c0,1.5-1.227,2.727-2.754,2.727H2.754C1.227,59.973,0,58.746,0,57.246L0,57.246z M40.99,38.154c0-21.818-40.99-21.818-40.99,0H40.99
	z M0.055,43.637h40.908v5.454H0.055V43.637z"/>
</svg>
